;FLAVOR:Marlin
;TIME:1780
;Filament used: 6.11037m
;Layer height: 0.3
;MINX:56.3
;MINY:52.428
;MINZ:0.3
;MAXX:178.703
;MAXY:177.576
;MAXZ:5.1
;TARGET_MACHINE.NAME:ELEGOO NEPTUNE 4 Pro
;Generated with Cura_SteamEngine 5.10.0
;ELEGOO NEPTUNE 4 / 4 PRO
M220 S100 ;Set the feed speed to 100%
M221 S100 ;Set the flow rate to 100%
M104 S140 ;Start heating extruder
M190 S60 ;Wait for the bed to reach print temp
G90
G28 ;home
G1 Z10 F300
G1 X67.5 Y0 F6000
G1 Z0 F300
M109 S210 ;Wait for extruder to reach print temp
G92 E0 ;Reset Extruder
G1 X67.5 Y0 Z0.4 F300 ;Move to start position
G1 X167.5 E30 F400 ;Draw the first line
G1 Z0.6 F120.0 ;Move to side a little
G1 X162.5 F3000
G92 E0 ;Reset Extruder
M82 ;absolute extrusion mode
G92 E0
G92 E0
G1 F2700 E-0.5
;LAYER_COUNT:17
;LAYER:0
M107
M204 S500
G0 F7200 X59.673 Y81.176 Z0.3
;TYPE:SKIRT
G1 F2700 E0
G1 F3600 X60.838 Y80.569 E0.08602
G1 X61.834 Y80.184 E0.15594
G1 X63.43 Y79.931 E0.26175
G1 X64.068 Y79.923 E0.30353
G1 X65.507 Y80.048 E0.39812
G1 X67.029 Y80.596 E0.50404
G1 X67.951 Y81.085 E0.57238
G1 X68.62 Y81.534 E0.62514
G1 X68.91 Y81.803 E0.65104
G1 X69.675 Y81.176 E0.71581
G1 X70.838 Y80.569 E0.80171
G1 X71.834 Y80.184 E0.87163
G1 X73.43 Y79.931 E0.97744
G1 X74.068 Y79.923 E1.01922
G1 X75.507 Y80.048 E1.11381
G1 X77.029 Y80.596 E1.21973
G1 X77.951 Y81.085 E1.28807
G1 X78.659 Y81.56 E1.3439
G1 X79.645 Y82.512 E1.43364
G1 X79.787 Y82.702 E1.44918
G1 X80.943 Y82.447 E1.52669
G1 X80.569 Y81.646 E1.58458
G1 X80.223 Y80.308 E1.67507
G1 X80.149 Y79.111 E1.7536
G1 X80.239 Y77.916 E1.83208
G1 X80.498 Y76.684 E1.91451
G1 X81.2 Y75.239 E2.01971
G1 X81.782 Y74.384 E2.08743
G1 X82.464 Y73.587 E2.15612
G1 X83.512 Y72.784 E2.24257
G1 X84.281 Y72.337 E2.30082
G1 X85.303 Y71.899 E2.37362
G1 X85.941 Y70.766 E2.45877
G1 X86.599 Y69.71 E2.54024
G1 X87.548 Y68.335 E2.64964
G1 X88.327 Y67.306 E2.73415
G1 X89.363 Y66.062 E2.84016
G1 X90.096 Y65.254 E2.91159
G1 X90.137 Y64.328 E2.97229
G1 X90.426 Y62.988 E3.06205
G1 X91 Y61.711 E3.15373
G1 X91.562 Y60.778 E3.22505
G1 X92.439 Y59.827 E3.30976
G1 X93.394 Y59.025 E3.39142
G1 X94.383 Y58.475 E3.46552
G1 X95.377 Y58.051 E3.53628
G1 X96.799 Y57.773 E3.63116
G1 X97.893 Y57.693 E3.70299
G1 X99.473 Y57.942 E3.80772
G1 X99.911 Y58.074 E3.83768
G1 X101.02 Y57.568 E3.9175
G1 X102.483 Y56.983 E4.02067
G1 X103.786 Y56.527 E4.11107
G1 X105.252 Y56.084 E4.21135
G1 X106.644 Y55.735 E4.30532
G1 X107.738 Y55.511 E4.37844
G1 X108.345 Y54.71 E4.44425
G1 X109.605 Y53.704 E4.54983
G1 X110.497 Y53.189 E4.61727
G1 X111.482 Y52.757 E4.6877
G1 X112.798 Y52.494 E4.77558
G1 X114.022 Y52.428 E4.85584
G1 X115.182 Y52.541 E4.93216
G1 X116.073 Y52.738 E4.99191
G1 X117.418 Y53.308 E5.08757
G1 X118.604 Y54.126 E5.18191
G1 X119.403 Y54.875 E5.25362
G1 X119.914 Y55.473 E5.30513
G1 X121.063 Y55.707 E5.38191
G1 X122.571 Y56.091 E5.48381
G1 X123.997 Y56.515 E5.58122
G1 X125.362 Y56.993 E5.67593
G1 X126.604 Y57.488 E5.76347
G1 X127.678 Y57.973 E5.84064
G1 X128.567 Y57.759 E5.90051
G1 X130.193 Y57.626 E6.00734
G1 X131.175 Y57.684 E6.07176
G1 X132.249 Y57.965 E6.14445
G1 X133.364 Y58.414 E6.22316
G1 X134.46 Y59.042 E6.30587
G1 X135.503 Y59.952 E6.39651
G1 X136.353 Y61.074 E6.48868
G1 X136.876 Y62.012 E6.559
G1 X137.278 Y62.99 E6.62824
G1 X137.524 Y64.293 E6.71507
G1 X137.584 Y65.117 E6.76917
G1 X138.37 Y65.972 E6.84522
G1 X139.397 Y67.197 E6.94989
G1 X140.244 Y68.306 E7.04127
G1 X141.104 Y69.55 E7.1403
G1 X141.809 Y70.663 E7.22657
G1 X142.407 Y71.715 E7.30581
G1 X143.539 Y72.173 E7.38577
G1 X144.688 Y72.939 E7.47619
G1 X145.254 Y73.424 E7.525
G1 X145.967 Y74.208 E7.59439
G1 X146.133 Y74.445 E7.61334
G1 X146.196 Y74.159 E7.63252
G1 X146.49 Y73.324 E7.69048
G1 X147.132 Y72.1 E7.78099
G1 X147.752 Y71.242 E7.8503
G1 X148.732 Y70.292 E7.93968
G1 X149.935 Y69.546 E8.03237
G1 X150.849 Y69.135 E8.09799
G1 X151.998 Y68.775 E8.17683
G1 X153.112 Y68.666 E8.25013
G1 X154.531 Y68.731 E8.34314
G1 X155.327 Y68.888 E8.39627
G1 X156.522 Y69.265 E8.47832
G1 X157.776 Y69.965 E8.57236
G1 X158.485 Y69.921 E8.61888
G1 X159.724 Y69.931 E8.70001
G1 X160.111 Y69.96 E8.72542
G1 X160.384 Y69.768 E8.74728
G1 X161.204 Y69.334 E8.80803
G1 X162.144 Y68.961 E8.87425
G1 X163.547 Y68.673 E8.96803
G1 X164.647 Y68.664 E9.04006
G1 X165.796 Y68.774 E9.11565
G1 X167.205 Y69.192 E9.21188
G1 X168.351 Y69.819 E9.29742
G1 X169.467 Y70.655 E9.38873
G1 X170.212 Y71.453 E9.46021
G1 X170.807 Y72.239 E9.52477
G1 X171.353 Y73.394 E9.60842
G1 X171.725 Y74.59 E9.69044
G1 X171.894 Y75.658 E9.76124
G1 X172.304 Y76.109 E9.80115
G1 X173.02 Y77.01 E9.87651
G1 X173.341 Y77.479 E9.91373
G1 X173.659 Y77.573 E9.93544
G1 X174.731 Y78.072 E10.01287
G1 X175.671 Y78.651 E10.08516
G1 X176.635 Y79.55 E10.17147
G1 X177.305 Y80.332 E10.2389
G1 X177.886 Y81.357 E10.31605
G1 X178.339 Y82.509 E10.39711
G1 X178.603 Y83.694 E10.47661
G1 X178.703 Y84.729 E10.54469
G1 X178.569 Y86.145 E10.63783
G1 X178.176 Y87.418 E10.72507
G1 X177.816 Y88.218 E10.78251
G1 X177.113 Y89.376 E10.87122
G1 X176.267 Y90.256 E10.95115
G1 X176.174 Y90.844 E10.99013
G1 X175.918 Y91.957 E11.06492
G1 X175.74 Y92.541 E11.10489
G1 X176.148 Y93.827 E11.19324
G1 X176.257 Y95.391 E11.2959
G1 X176.186 Y96.348 E11.35874
G1 X176.014 Y97.314 E11.42299
G1 X175.478 Y98.681 E11.51913
G1 X174.961 Y99.535 E11.5845
G1 X174.172 Y100.566 E11.66951
G1 X173.152 Y101.408 E11.75612
G1 X172.19 Y102.031 E11.83117
G1 X170.903 Y102.536 E11.9217
G1 X170.068 Y102.743 E11.97803
G1 X168.654 Y102.867 E12.07098
G1 X167.561 Y102.795 E12.1427
G1 X166.924 Y103.153 E12.19055
G1 X165.967 Y103.607 E12.25991
G1 X165.433 Y103.816 E12.29746
G1 X165.241 Y104.151 E12.32274
G1 X164.615 Y104.983 E12.39092
G1 X163.854 Y105.775 E12.46284
G1 X162.723 Y106.543 E12.55236
G1 X161.76 Y107.017 E12.62264
G1 X160.691 Y107.388 E12.69674
G1 X159.335 Y107.592 E12.78653
G1 X158.288 Y107.552 E12.85514
G1 X156.93 Y107.315 E12.94541
G1 X155.868 Y106.982 E13.01828
G1 X154.519 Y106.179 E13.12108
G1 X153.76 Y105.563 E13.18509
G1 X153.099 Y104.863 E13.24814
G1 X152.448 Y103.976 E13.32018
G1 X152.347 Y103.799 E13.33353
G1 X151.656 Y103.518 E13.38237
G1 X150.606 Y103.001 E13.45901
G1 X150.222 Y102.779 E13.48805
G1 X149.898 Y102.832 E13.50955
G1 X148.837 Y102.896 E13.57915
G1 X147.493 Y102.689 E13.6682
G1 X146.466 Y102.383 E13.73837
G1 X145.434 Y101.906 E13.81281
G1 X145.035 Y101.651 E13.84382
G1 X144.384 Y102.154 E13.89769
G1 X143.248 Y102.803 E13.98336
G1 X142.51 Y103.102 E14.0355
G1 X141.873 Y104.234 E14.12055
G1 X141.201 Y105.311 E14.20368
G1 X140.264 Y106.665 E14.3115
G1 X139.456 Y107.732 E14.39914
G1 X138.478 Y108.906 E14.49919
G1 X137.718 Y109.741 E14.57313
G1 X137.678 Y110.668 E14.63388
G1 X137.385 Y112.029 E14.72505
G1 X136.719 Y113.449 E14.82775
G1 X136.052 Y114.449 E14.90646
G1 X135.625 Y114.931 E14.94862
G1 X134.725 Y115.755 E15.02853
G1 X133.503 Y116.526 E15.12314
G1 X132.284 Y116.966 E15.208
G1 X131.068 Y117.215 E15.28928
G1 X129.983 Y117.271 E15.36042
G1 X128.744 Y117.182 E15.44176
G1 X127.893 Y116.927 E15.49993
G1 X126.691 Y117.477 E15.58649
G1 X125.483 Y117.964 E15.67177
G1 X124.028 Y118.473 E15.77271
G1 X122.562 Y118.916 E15.87299
G1 X121.17 Y119.265 E15.96696
G1 X120.09 Y119.488 E16.03917
G1 X119.641 Y120.033 E16.08541
G1 X120.085 Y120.616 E16.1334
G1 X121.178 Y120.888 E16.20715
G1 X122.552 Y121.305 E16.30118
G1 X123.699 Y121.71 E16.38083
G1 X124.699 Y122.122 E16.45165
G1 X125.946 Y121.812 E16.53579
G1 X126.946 Y121.698 E16.60169
G1 X128.286 Y121.78 E16.6896
G1 X129.392 Y122.065 E16.76439
G1 X130.595 Y122.521 E16.84863
G1 X131.88 Y123.384 E16.94999
G1 X132.39 Y123.837 E16.99466
G1 X133.359 Y124.921 E17.08986
G1 X134.051 Y126.149 E17.18216
G1 X134.43 Y127.265 E17.25934
G1 X134.696 Y128.485 E17.3411
G1 X134.702 Y129.38 E17.39971
G1 X135.428 Y130.241 E17.47345
G1 X136.304 Y131.388 E17.56796
G1 X136.997 Y132.397 E17.64811
G1 X136.6 Y130.61 E17.76798
G1 X136.545 Y130.244 E17.79222
G1 X136.373 Y130.087 E17.80746
G1 X135.721 Y129.344 E17.87219
G1 X134.964 Y128.234 E17.96017
G1 X134.444 Y126.825 E18.05852
G1 X134.2 Y125.678 E18.1353
G1 X134.111 Y124.72 E18.1983
G1 X134.291 Y123.22 E18.29723
G1 X134.524 Y122.348 E18.35633
G1 X134.942 Y121.339 E18.42785
G1 X135.609 Y120.19 E18.51484
G1 X136.516 Y119.207 E18.60242
G1 X137.296 Y118.53 E18.67005
G1 X138.757 Y117.743 E18.77872
G1 X139.466 Y117.483 E18.82817
G1 X139.804 Y116.997 E18.86693
G1 X140.667 Y115.928 E18.95689
G1 X140.945 Y115.628 E18.98368
G1 X140.973 Y115.245 E19.00882
G1 X141.177 Y114.227 E19.07681
G1 X141.49 Y113.324 E19.13939
G1 X142.132 Y112.1 E19.22989
G1 X142.752 Y111.242 E19.29921
G1 X143.732 Y110.292 E19.38858
G1 X144.935 Y109.546 E19.48127
G1 X145.849 Y109.135 E19.54689
G1 X146.998 Y108.775 E19.62574
G1 X148.112 Y108.666 E19.69903
G1 X149.531 Y108.731 E19.79205
G1 X150.327 Y108.888 E19.84517
G1 X151.522 Y109.265 E19.92723
G1 X152.776 Y109.965 E20.02127
G1 X153.485 Y109.921 E20.06778
G1 X154.724 Y109.931 E20.14891
G1 X155.111 Y109.96 E20.17433
G1 X155.384 Y109.768 E20.19618
G1 X156.204 Y109.334 E20.25693
G1 X157.145 Y108.961 E20.32321
G1 X158.542 Y108.673 E20.41661
G1 X159.632 Y108.664 E20.48799
G1 X160.791 Y108.772 E20.56421
G1 X162.204 Y109.191 E20.66072
G1 X163.351 Y109.819 E20.74635
G1 X164.467 Y110.655 E20.83765
G1 X165.212 Y111.453 E20.90914
G1 X165.807 Y112.239 E20.97369
G1 X166.353 Y113.394 E21.05735
G1 X166.725 Y114.59 E21.13936
G1 X166.894 Y115.658 E21.21017
G1 X167.304 Y116.109 E21.25008
G1 X168.02 Y117.01 E21.32544
G1 X168.341 Y117.479 E21.36265
G1 X168.659 Y117.573 E21.38436
G1 X169.731 Y118.072 E21.46179
G1 X170.671 Y118.651 E21.53408
G1 X171.635 Y119.55 E21.6204
G1 X172.305 Y120.332 E21.68783
G1 X172.886 Y121.357 E21.76498
G1 X173.339 Y122.509 E21.84603
G1 X173.603 Y123.694 E21.92553
G1 X173.703 Y124.729 E21.99362
G1 X173.569 Y126.145 E22.08675
G1 X173.176 Y127.418 E22.17399
G1 X172.816 Y128.218 E22.23144
G1 X172.113 Y129.376 E22.32014
G1 X171.267 Y130.256 E22.40008
G1 X171.174 Y130.844 E22.43906
G1 X170.918 Y131.957 E22.51384
G1 X170.74 Y132.541 E22.55382
G1 X171.148 Y133.827 E22.64216
G1 X171.257 Y135.391 E22.74482
G1 X171.186 Y136.348 E22.80766
G1 X171.014 Y137.314 E22.87191
G1 X170.478 Y138.681 E22.96806
G1 X169.961 Y139.535 E23.03343
G1 X169.172 Y140.566 E23.11844
G1 X168.152 Y141.408 E23.20505
G1 X167.19 Y142.031 E23.2801
G1 X165.903 Y142.536 E23.37062
G1 X165.068 Y142.743 E23.42696
G1 X163.654 Y142.867 E23.5199
G1 X162.561 Y142.795 E23.59163
G1 X161.924 Y143.153 E23.63947
G1 X160.967 Y143.607 E23.70883
G1 X160.433 Y143.816 E23.74638
G1 X160.241 Y144.151 E23.77167
G1 X159.615 Y144.983 E23.83985
G1 X158.854 Y145.775 E23.91177
G1 X157.723 Y146.543 E24.00129
G1 X156.76 Y147.017 E24.07157
G1 X155.691 Y147.388 E24.14566
G1 X154.335 Y147.592 E24.23546
G1 X153.288 Y147.552 E24.30406
G1 X151.929 Y147.315 E24.3944
G1 X150.871 Y146.983 E24.467
G1 X149.593 Y146.231 E24.5641
G1 X148.752 Y145.553 E24.63484
G1 X147.984 Y144.724 E24.70884
G1 X147.406 Y143.918 E24.77378
G1 X147.337 Y143.796 E24.78296
G1 X146.656 Y143.518 E24.83113
G1 X145.606 Y143.001 E24.90776
G1 X145.222 Y142.779 E24.93681
G1 X144.898 Y142.832 E24.9583
G1 X143.838 Y142.896 E25.02784
G1 X142.571 Y142.705 E25.11174
G1 X142.437 Y143.181 E25.14412
G1 X141.95 Y144.188 E25.21737
G1 X141.382 Y145.082 E25.28672
G1 X141.461 Y146.127 E25.35535
G1 X141.494 Y147.634 E25.45405
G1 X141.464 Y148.794 E25.53003
G1 X141.378 Y149.919 E25.60391
G1 X142.021 Y150.872 E25.67919
G1 X142.56 Y152.194 E25.77268
G1 X142.825 Y153.489 E25.85923
G1 X142.917 Y154.482 E25.92453
G1 X142.728 Y155.971 E26.02282
G1 X142.425 Y157.054 E26.09646
G1 X142.034 Y158.008 E26.16397
G1 X141.258 Y159.137 E26.25368
G1 X140.53 Y159.94 E26.32465
G1 X139.558 Y160.772 E26.40843
G1 X138.339 Y161.394 E26.49804
G1 X137.567 Y161.669 E26.5517
G1 X136.943 Y162.681 E26.62955
G1 X136.234 Y163.705 E26.71111
G1 X135.288 Y164.934 E26.81267
G1 X134.706 Y165.615 E26.87133
G1 X134.633 Y166.781 E26.94783
G1 X134.441 Y167.806 E27.01611
G1 X133.92 Y169.141 E27.10995
G1 X133.122 Y170.35 E27.20481
G1 X132.463 Y171.137 E27.27202
G1 X131.357 Y171.993 E27.3636
G1 X130.488 Y172.495 E27.42931
G1 X129.255 Y172.997 E27.51649
G1 X127.953 Y173.236 E27.60317
G1 X126.901 Y173.306 E27.67221
G1 X125.622 Y173.129 E27.75675
G1 X124.682 Y172.887 E27.82031
G1 X123.632 Y173.314 E27.89454
G1 X122.407 Y173.746 E27.97959
G1 X121.007 Y174.157 E28.07513
G1 X120.106 Y174.374 E28.13582
G1 X119.349 Y175.321 E28.21521
G1 X118.206 Y176.242 E28.31133
G1 X117.371 Y176.74 E28.37499
G1 X116.364 Y177.166 E28.44658
G1 X115.059 Y177.53 E28.5353
G1 X113.765 Y177.576 E28.62008
G1 X112.502 Y177.447 E28.70322
G1 X111.427 Y177.157 E28.77613
G1 X110.35 Y176.716 E28.85233
G1 X109.149 Y175.93 E28.94632
G1 X108.332 Y175.133 E29.02106
G1 X107.711 Y174.378 E29.08507
G1 X106.587 Y174.098 E29.16092
G1 X105.33 Y173.719 E29.24689
G1 X104.139 Y173.299 E29.32958
G1 X103.143 Y172.889 E29.40011
G1 X101.869 Y173.188 E29.4858
G1 X100.866 Y173.302 E29.5519
G1 X99.483 Y173.218 E29.64263
G1 X98.075 Y172.814 E29.73855
G1 X97.03 Y172.368 E29.81294
G1 X95.809 Y171.507 E29.91078
G1 X95.176 Y170.909 E29.9678
G1 X94.416 Y170.027 E30.04403
G1 X93.753 Y168.77 E30.13709
G1 X93.339 Y167.699 E30.21228
G1 X93.141 Y166.437 E30.29593
G1 X93.113 Y165.615 E30.34978
G1 X92.473 Y164.865 E30.41434
G1 X91.511 Y163.603 E30.51825
G1 X90.718 Y162.443 E30.61026
G1 X90.263 Y161.698 E30.66742
G1 X89.103 Y161.223 E30.7495
G1 X88.291 Y160.776 E30.8102
G1 X87.146 Y159.86 E30.90621
G1 X86.268 Y158.75 E30.99889
G1 X85.698 Y157.778 E31.07267
G1 X85.256 Y156.732 E31.14703
G1 X84.404 Y157.259 E31.21263
G1 X82.92 Y157.587 E31.31215
G1 X81.189 Y157.587 E31.42549
G1 X79.774 Y157.304 E31.51998
G1 X78.604 Y156.658 E31.6075
G1 X77.659 Y155.87 E31.68807
G1 X76.796 Y154.475 E31.79548
G1 X76.729 Y154.312 E31.80702
G1 X76.42 Y152.913 E31.90084
G1 X76.42 Y94.645 E35.71628
G1 X75.533 Y94.9 E35.77671
G1 X74.125 Y95.114 E35.86997
G1 X72.461 Y94.942 E35.97951
G1 X71.836 Y94.792 E36.0216
G1 X70.383 Y94.219 E36.12387
G1 X69.518 Y93.675 E36.19078
G1 X68.9 Y93.169 E36.24308
G1 X68.502 Y93.522 E36.27792
G1 X67.578 Y94.128 E36.35027
G1 X66.597 Y94.612 E36.4219
G1 X65.177 Y94.972 E36.51783
G1 X64.101 Y95.112 E36.58888
G1 X62.461 Y94.942 E36.69684
G1 X61.836 Y94.792 E36.73893
G1 X60.382 Y94.219 E36.84127
G1 X59.461 Y93.634 E36.91271
G1 X58.613 Y92.918 E36.98539
G1 X57.803 Y92.032 E37.06399
G1 X57.119 Y90.868 E37.1524
G1 X56.677 Y89.849 E37.22513
G1 X56.411 Y88.611 E37.30805
G1 X56.3 Y87.457 E37.38396
G1 X56.417 Y86.336 E37.45776
G1 X56.649 Y85.231 E37.5317
G1 X57.203 Y83.924 E37.62465
G1 X57.921 Y82.853 E37.70908
G1 X58.585 Y82.067 E37.77646
G1 X59.673 Y81.176 E37.86854
G0 F7200 X59.964 Y81.617
G1 F3600 X61.027 Y81.059 E37.94715
G1 X61.973 Y80.693 E38.01357
G1 X63.439 Y80.456 E38.11082
G1 X64.023 Y80.446 E38.14906
G1 X65.393 Y80.565 E38.23911
G1 X66.851 Y81.09 E38.34058
G1 X67.658 Y81.521 E38.40049
G1 X68.327 Y81.97 E38.45325
G1 X68.881 Y82.505 E38.50368
G1 X69.966 Y81.617 E38.59548
G1 X71.027 Y81.059 E38.67398
G1 X71.973 Y80.693 E38.7404
G1 X73.439 Y80.456 E38.83764
G1 X74.023 Y80.446 E38.87589
G1 X75.393 Y80.565 E38.96594
G1 X76.851 Y81.09 E39.06741
G1 X77.658 Y81.521 E39.12732
G1 X78.327 Y81.97 E39.18007
G1 X79.28 Y82.89 E39.26681
G1 X79.602 Y83.361 E39.30417
G1 X79.893 Y83.216 E39.32546
G1 X81.155 Y82.938 E39.41008
G1 X81.842 Y82.939 E39.45506
G1 X81.497 Y82.392 E39.49741
G1 X81.064 Y81.465 E39.56441
G1 X80.744 Y80.227 E39.64814
G1 X80.673 Y79.079 E39.72345
G1 X80.753 Y78.024 E39.79273
G1 X80.999 Y76.855 E39.87096
G1 X81.635 Y75.533 E39.96702
G1 X82.181 Y74.725 E40.03087
G1 X82.827 Y73.97 E40.09594
G1 X83.778 Y73.237 E40.17456
